symbolic/64x64/apps/picturama.svg

<svg xmlns="http://www.w3.org/2000/svg" width="64" height="64" x="0" y="0" version="1.1">
 <path style="opacity:0.2" d="m 32.149196,5.0000004 v 0.00274 A 6.3412168,6.3670384 0 0 0 28.828884,5.850388 L 10.171116,16.667537 A 6.3412168,6.3670384 0 0 0 7,22.182755 v 21.634296 a 6.3412168,6.3670384 0 0 0 3.171116,5.512482 l 18.657768,10.817152 a 6.3412168,6.3670384 0 0 0 6.34223,0 L 53.828884,49.329533 A 6.3412168,6.3670384 0 0 0 57,43.817051 V 22.182755 A 6.3412168,6.3670384 0 0 0 53.828884,16.667537 L 35.171114,5.850388 A 6.3412168,6.3670384 0 0 0 32.149196,5.0000004 Z"/>
 <path style="fill:#e4e4e4" d="m 32.149196,4.0000017 v 0.00274 A 6.3412168,6.3670384 0 0 0 28.828884,4.8503893 L 10.171116,15.667538 A 6.3412168,6.3670384 0 0 0 7,21.182757 v 21.634296 a 6.3412168,6.3670384 0 0 0 3.171116,5.512482 l 18.657768,10.817152 a 6.3412168,6.3670384 0 0 0 6.34223,0 L 53.828884,48.329535 A 6.3412168,6.3670384 0 0 0 57,42.817053 V 21.182757 A 6.3412168,6.3670384 0 0 0 53.828884,15.667538 L 35.171114,4.8503893 A 6.3412168,6.3670384 0 0 0 32.149196,4.0000017 Z"/>
 <polygon style="opacity:0.6;fill:#009741" transform="matrix(0.46666668,0,0,0.46666668,11,7.7566661)" points="0 26 0 60.6 30 77.9 60 60.6 45 69.3 30 60.6 30 43.3 45 34.6 60 43.3 60 26 30 8.7"/>
 <polygon style="opacity:0.6;fill:#dedc0a" transform="matrix(0.46666668,0,0,0.46666668,11,7.7566661)" points="60 60.6 45 69.3 30 60.6 30 43.3 45 34.6 30 26 0 43.3 0 77.9 30 95.3 60 77.9"/>
 <polygon style="opacity:0.6;fill:#f39208" transform="matrix(0.46666668,0,0,0.46666668,11,7.7566661)" points="45 34.6 60 43.3 60 60.6 45 69.3 30 60.6 30 43.3 45 34.6 15 52 15 86.6 45 103.9 75 86.6 75 52"/>
 <polygon style="opacity:0.6;fill:#e72174" transform="matrix(0.46666668,0,0,0.46666668,11,7.7566661)" points="90 77.9 90 43.3 60 26 45 34.6 60 43.3 60 60.6 45 69.3 30 60.6 30 77.9 60 95.3"/>
 <polygon style="opacity:0.6;fill:#253887" transform="matrix(0.46666668,0,0,0.46666668,11,7.7566661)" points="60 43.3 60 60.6 45 69.3 30 60.6 60 77.9 90 60.6 90 26 60 8.7 30 26 30 43.3 45 34.6"/>
 <polygon style="opacity:0.6;fill:#3ba9e0" transform="matrix(0.46666668,0,0,0.46666668,11,7.7566661)" points="75 52 75 17.3 45 0 15 17.3 15 52 30 60.6 30 43.3 45 34.6 60 43.3 60 60.6"/>
 <path style="opacity:0.2;fill:#ffffff" d="M 32.148438 4 L 32.148438 4.0039062 A 6.3412168 6.3670384 0 0 0 28.828125 4.8515625 L 10.171875 15.667969 A 6.3412168 6.3670384 0 0 0 7 21.183594 L 7 22.183594 A 6.3412168 6.3670384 0 0 1 10.171875 16.667969 L 28.828125 5.8515625 A 6.3412168 6.3670384 0 0 1 32.148438 5.0039062 L 32.148438 5 A 6.3412168 6.3670384 0 0 1 35.171875 5.8515625 L 53.828125 16.667969 A 6.3412168 6.3670384 0 0 1 57 22.183594 L 57 21.183594 A 6.3412168 6.3670384 0 0 0 53.828125 15.667969 L 35.171875 4.8515625 A 6.3412168 6.3670384 0 0 0 32.148438 4 z"/>
 <path style="opacity:0.1" d="M 32 23.902344 L 25 27.964844 L 25 28.964844 L 32 24.902344 L 39 28.964844 L 39 27.964844 L 32 23.902344 z M 11 44.109375 L 11 45.109375 L 18 49.171875 L 18.539062 49.480469 L 25 53.230469 L 25.019531 53.21875 L 32 57.242188 L 38.980469 53.21875 L 39 53.230469 L 53 45.109375 L 53 44.109375 L 39 52.230469 L 38.980469 52.21875 L 32 56.242188 L 25.019531 52.21875 L 25 52.230469 L 18.539062 48.480469 L 18 48.171875 L 11 44.109375 z"/>
</svg>

<svg xmlns="http://www.w3.org/2000/svg" width="64" height="64"><path style="opacity:.2" d="M32.15 5v.003a6.341 6.367 0 0 0-3.321.847L10.17 16.668A6.341 6.367 0 0 0 7 22.183v21.634a6.341 6.367 0 0 0 3.171 5.513L28.83 60.147a6.341 6.367 0 0 0 6.342 0L53.83 49.33A6.341 6.367 0 0 0 57 43.817V22.183a6.341 6.367 0 0 0-3.171-5.515L35.17 5.85A6.341 6.367 0 0 0 32.15 5z"/><path style="fill:#e4e4e4" d="M32.15 4v.003a6.341 6.367 0 0 0-3.321.847L10.17 15.668A6.341 6.367 0 0 0 7 21.183v21.634a6.341 6.367 0 0 0 3.171 5.513L28.83 59.147a6.341 6.367 0 0 0 6.342 0L53.83 48.33A6.341 6.367 0 0 0 57 42.817V21.183a6.341 6.367 0 0 0-3.171-5.515L35.17 4.85A6.341 6.367 0 0 0 32.15 4z"/><path style="opacity:.6;fill:#009741" transform="matrix(.46667 0 0 .46667 11 7.757)" d="M0 26v34.6l30 17.3 30-17.3-15 8.7-15-8.7V43.3l15-8.7 15 8.7V26L30 8.7z"/><path style="opacity:.6;fill:#dedc0a" transform="matrix(.46667 0 0 .46667 11 7.757)" d="m60 60.6-15 8.7-15-8.7V43.3l15-8.7L30 26 0 43.3v34.6l30 17.4 30-17.4z"/><path style="opacity:.6;fill:#f39208" transform="matrix(.46667 0 0 .46667 11 7.757)" d="m45 34.6 15 8.7v17.3l-15 8.7-15-8.7V43.3l15-8.7L15 52v34.6l30 17.3 30-17.3V52z"/><path style="opacity:.6;fill:#e72174" transform="matrix(.46667 0 0 .46667 11 7.757)" d="M90 77.9V43.3L60 26l-15 8.6 15 8.7v17.3l-15 8.7-15-8.7v17.3l30 17.4z"/><path style="opacity:.6;fill:#253887" transform="matrix(.46667 0 0 .46667 11 7.757)" d="M60 43.3v17.3l-15 8.7-15-8.7 30 17.3 30-17.3V26L60 8.7 30 26v17.3l15-8.7z"/><path style="opacity:.6;fill:#3ba9e0" transform="matrix(.46667 0 0 .46667 11 7.757)" d="M75 52V17.3L45 0 15 17.3V52l15 8.6V43.3l15-8.7 15 8.7v17.3z"/><path style="opacity:.2;fill:#fff" d="M32.148 4v.004a6.341 6.367 0 0 0-3.32.848L10.172 15.668A6.341 6.367 0 0 0 7 21.184v1a6.341 6.367 0 0 1 3.172-5.516L28.828 5.852a6.341 6.367 0 0 1 3.32-.848V5a6.341 6.367 0 0 1 3.024.852l18.656 10.816A6.341 6.367 0 0 1 57 22.184v-1a6.341 6.367 0 0 0-3.172-5.516L35.172 4.852A6.341 6.367 0 0 0 32.148 4z"/><path style="opacity:.1" d="m32 23.902-7 4.063v1l7-4.063 7 4.063v-1l-7-4.063zM11 44.11v1l7 4.063.54.308L25 53.23l.02-.011L32 57.242l6.98-4.023.02.011 14-8.12v-1l-14 8.12-.02-.011L32 56.242l-6.98-4.023-.02.011-6.46-3.75-.54-.308-7-4.063z"/></svg>
